src/assets/img/icons/mask/icon-areas-blockchain.svg

<svg width="81" height="81" viewBox="0 0 81 81" fill="none" xmlns="http://www.w3.org/2000/svg">
<path d="M39.1935 47.0323V49.6452H35.2742V67.9355H39.1935V70.5484H41.8064V67.9355C44.6886 67.9355 47.0323 65.5918 47.0323 62.7097C47.0323 61.1512 46.3465 59.7478 45.2595 58.7903C46.3465 57.8328 47.0323 56.4294 47.0323 54.871C47.0323 51.9889 44.6886 49.6452 41.8064 49.6452V47.0323H39.1935ZM41.8064 65.3226H37.8871V60.0968H41.8064C43.2475 60.0968 44.4194 61.2686 44.4194 62.7097C44.4194 64.1507 43.2475 65.3226 41.8064 65.3226ZM44.4194 54.871C44.4194 56.312 43.2475 57.4839 41.8064 57.4839H37.8871V52.2581H41.8064C43.2475 52.2581 44.4194 53.4299 44.4194 54.871ZM60.0968 13.0645C57.3244 13.0645 54.6815 13.6182 52.2581 14.6038V10.4516H49.6452V15.893C48.7291 16.4244 47.8539 17.0164 47.0323 17.676V7.83871H44.4194V20.1888C43.4248 21.3185 42.5407 22.5452 41.8064 23.8714V0H39.1935V23.8702C38.4593 22.5439 37.5752 21.3172 36.5806 20.1875V7.83871H33.9677V17.676C33.1461 17.0164 32.2709 16.4244 31.3548 15.893V10.4516H28.7419V14.6038C26.3185 13.6182 23.6756 13.0645 20.9032 13.0645C9.378 13.0645 0 22.4425 0 33.9677C0 38.4957 1.46338 42.6804 3.91935 46.1073V64.0161H6.53226V49.108C7.34751 49.8818 8.2138 50.6014 9.14516 51.238V69.2419H11.7581V52.7352C12.6008 53.148 13.4696 53.5135 14.371 53.8114V75.7742H16.9839V54.4895C17.9612 54.6764 18.9659 54.7797 19.9846 54.8238C19.7365 56.1098 19.5968 57.4328 19.5968 58.7903C19.5968 70.3155 28.9748 79.6935 40.5 79.6935C52.0252 79.6935 61.4032 70.3155 61.4032 58.7903C61.4032 57.4328 61.2635 56.1098 61.0154 54.8238C62.0354 54.7797 63.0388 54.6751 64.0161 54.4895V75.7742H66.629V53.8114C67.5304 53.5135 68.3992 53.148 69.2419 52.7365V69.2419H71.8548V51.2361C72.7862 50.6001 73.6525 49.8818 74.4677 49.1068V64.0161H77.0806V46.1073C79.5366 42.6804 81 38.4957 81 33.9677C81 22.4425 71.622 13.0645 60.0968 13.0645ZM20.9032 15.6774C30.0994 15.6774 37.711 22.5063 38.9843 31.3548H27.9343L26.2203 34.7843L22.1676 25.3297L17.2716 37.5707L13.476 22.3857L8.33756 32.6613H2.67925C3.35352 23.1857 11.2592 15.6774 20.9032 15.6774ZM2.67925 35.2742H9.95404L12.6543 29.8723L16.6974 46.0422L22.2531 32.1541L26.0391 40.9899L29.5495 33.9677H39.1935C39.1935 35.3214 39.0366 36.6655 38.7438 37.9758C30.278 38.6851 23.2393 44.4519 20.6615 52.2466C11.1272 52.1196 3.34842 44.6688 2.67925 35.2742ZM40.5 77.0806C30.4139 77.0806 22.2097 68.8764 22.2097 58.7903C22.2097 48.7042 30.4139 40.5 40.5 40.5C50.5861 40.5 58.7903 48.7042 58.7903 58.7903C58.7903 68.8764 50.5861 77.0806 40.5 77.0806ZM60.3385 52.2466C57.7607 44.4532 50.722 38.6851 42.2562 37.977C41.9634 36.6668 41.8064 35.3239 41.8064 33.9677C41.8064 23.8817 50.0107 15.6774 60.0968 15.6774C70.1829 15.6774 78.3871 23.8817 78.3871 33.9677C78.3871 43.9715 70.3117 52.1145 60.3385 52.2466ZM56.1774 58.7903C56.1774 62.4494 54.8882 66.0109 52.5445 68.8215L50.5389 67.1477C52.489 64.8065 53.5645 61.8383 53.5645 58.7903C53.5645 51.5863 47.704 45.7258 40.5 45.7258C37.452 45.7258 34.4851 46.8013 32.1439 48.7514L30.4707 46.7446C33.2807 44.4021 36.8422 43.1129 40.5 43.1129C49.145 43.1129 56.1774 50.1453 56.1774 58.7903ZM48.8561 68.8292L50.5293 70.8361C47.7193 73.1785 44.1578 74.4677 40.5 74.4677C31.855 74.4677 24.8226 67.4354 24.8226 58.7903C24.8226 55.1312 26.1118 51.5698 28.4555 48.7591L30.4611 50.433C28.511 52.7741 27.4355 55.7424 27.4355 58.7903C27.4355 65.9943 33.296 71.8548 40.5 71.8548C43.548 71.8548 46.5149 70.7793 48.8561 68.8292ZM50.6875 33.9677L60.0968 48.0816L69.506 33.9677L60.0968 19.8539L50.6875 33.9677ZM58.7903 34.767L54.2949 33.2686L58.7903 26.5252V34.767ZM58.7903 37.5228V41.4103L55.4578 36.411L58.7903 37.5228ZM61.4032 37.5228L64.7357 36.4122L61.4032 41.4103V37.5228ZM61.4032 34.767V26.5233L65.8986 33.2673L61.4032 34.767ZM3.91935 66.629H6.53226V69.2419H3.91935V66.629ZM9.14516 71.8548H11.7581V74.4677H9.14516V71.8548ZM14.371 78.3871H16.9839V81H14.371V78.3871ZM77.0806 69.2419H74.4677V66.629H77.0806V69.2419ZM71.8548 74.4677H69.2419V71.8548H71.8548V74.4677ZM66.629 78.3871V81H64.0161V78.3871H66.629ZM33.9677 5.22581V2.6129H36.5806V5.22581H33.9677ZM44.4194 5.22581V2.6129H47.0323V5.22581H44.4194Z" fill="url(#paint0_linear)"/>
<defs>
<linearGradient id="paint0_linear" x1="40.5" y1="81" x2="40.5" y2="0" gradientUnits="userSpaceOnUse">
<stop stop-color="#C35330"/>
<stop offset="0.473324" stop-color="#FAB7A2"/>
<stop offset="1" stop-color="#F4673B"/>
</linearGradient>
</defs>
</svg>

<svg xmlns="http://www.w3.org/2000/svg" width="81" height="81" fill="none"><path fill="url(#paint0_linear)" d="M39.2 47.03v2.62h-3.93v18.29h3.92v2.6h2.62v-2.6a5.23 5.23 0 003.45-9.15 5.21 5.21 0 00-3.45-9.14v-2.62h-2.62zm2.6 18.3H37.9V60.1h3.92a2.62 2.62 0 010 5.22zm2.62-10.46a2.62 2.62 0 01-2.61 2.61h-3.92v-5.22h3.92a2.62 2.62 0 012.6 2.61zm15.68-41.8c-2.78 0-5.42.55-7.84 1.53v-4.15h-2.61v5.44c-.92.53-1.8 1.13-2.62 1.79V7.84h-2.61v12.35a20.9 20.9 0 00-2.61 3.68V0h-2.62v23.87a20.9 20.9 0 00-2.6-3.68V7.84h-2.62v9.84c-.82-.66-1.7-1.26-2.62-1.79v-5.44h-2.6v4.15A20.93 20.93 0 000 33.96c-.01 4.54 1.45 8.72 3.9 12.15V64h2.62v-14.9c.82.77 1.68 1.5 2.62 2.13v18h2.6v-16.5c.85.4 1.72.77 2.62 1.07v21.96h2.61V54.5c.98.19 1.99.29 3 .33A20.93 20.93 0 0040.5 79.7a20.93 20.93 0 0020.52-24.87c1.02-.04 2.02-.14 3-.33v21.28h2.6V53.81c.91-.3 1.78-.66 2.62-1.07v16.5h2.61v-18c.94-.64 1.8-1.36 2.62-2.13V64h2.61v-17.9A20.77 20.77 0 0081 33.97c0-11.53-9.38-20.9-20.9-20.9zm-39.2 2.6c9.2 0 16.81 6.84 18.08 15.68H27.93l-1.71 3.43-4.05-9.45-4.9 12.24-3.8-15.18-5.13 10.27H2.68A18.3 18.3 0 0120.9 15.68zM2.68 35.28h7.27l2.7-5.4 4.05 16.17 5.55-13.89L26.04 41l3.5-7.02h9.65c0 1.35-.15 2.7-.45 4-8.46.72-15.5 6.48-18.08 14.28A18.3 18.3 0 012.68 35.27zM40.5 77.08A18.31 18.31 0 0122.21 58.8c0-10.09 8.2-18.29 18.29-18.29s18.29 8.2 18.29 18.29-8.2 18.3-18.29 18.3zm19.84-24.83a20.93 20.93 0 00-18.08-14.27 18.31 18.31 0 0117.84-22.3c10.08 0 18.29 8.2 18.29 18.29 0 10-8.08 18.14-18.05 18.28zm-4.16 6.54c0 3.66-1.3 7.22-3.64 10.03l-2-1.67a13.08 13.08 0 00-18.4-18.4l-1.67-2a15.7 15.7 0 0125.7 12.04zm-7.32 10.04l1.67 2a15.7 15.7 0 01-25.7-12.04c0-3.66 1.28-7.22 3.63-10.03l2 1.67a13.08 13.08 0 0018.4 18.4zm1.83-34.86l9.4 14.11 9.42-14.11-9.41-14.12-9.41 14.12zm8.1.8l-4.5-1.5 4.5-6.74v8.24zm0 2.75v3.89l-3.33-5 3.33 1.11zm2.61 0l3.34-1.1-3.34 4.99v-3.89zm0-2.75v-8.25l4.5 6.75-4.5 1.5zM3.92 66.63h2.61v2.61H3.92v-2.61zm5.23 5.22h2.6v2.62h-2.6v-2.62zm5.22 6.54h2.61V81h-2.6v-2.61zm62.71-9.15h-2.61v-2.61h2.61v2.61zm-5.23 5.23h-2.6v-2.62h2.6v2.62zm-5.22 3.92V81h-2.61v-2.61h2.6zM33.97 5.23V2.6h2.61v2.62h-2.61zm10.45 0V2.6h2.61v2.62h-2.61z"/><defs><linearGradient id="paint0_linear" x1="40.5" x2="40.5" y1="81" y2="0" gradientUnits="userSpaceOnUse"><stop stop-color="#C35330"/><stop offset=".473" stop-color="#FAB7A2"/><stop offset="1" stop-color="#F4673B"/></linearGradient></defs></svg>
